X: 062203
T: Fitzmaurice's Trip to Roslin Castle
S: Fitzmaurice Collection
Z: BB
L: 1/8
M: 6/8
R: jig
Q: 1/4 = 170
K: G
B/c/ | d2d dBg | d2d dBG | cec BdB | cAA A2 B/c/|
d2d dBg | d2d def | gfe def | gdB G2 :|
d | g3 a3 | bag fed | gfe dcB | cAA A2f |
g3 a3 | bag fed | gfe def | gdB G2 :|
